X:484
T:Jessie Smith
T:Miss Jessie Smith
B:Kerr's Merry Melodies Bk.1
Z:Nigel Gatherer
R:strathspey
M:4/4
L:1/8
K:D
d | A<FF>E D>A G/F/E/D/ | A<FF>A B2 Bd  |
    A<FF>E D>A G/F/E/D/ | G<BA>F E2 E  :|
A | d2 f>d B>e d/c/B/A/ | d>ef>d B2 B>A |
    d>ef>d B>e d/c/B/A/ | d>BA<F E2 E>c |
    d2 f>d B>e d/c/B/A/ | d>ef>d B2 B>g |
    (3fed (3cde (3dcB (3ABc |  d>BA<F E2 E |]
<end>
<start>
